findly-builder/apps/searchassist/src/assets/icons/actions/bot-icon.svg

<svg width="40" height="40" viewBox="0 0 40 40" fill="none" xmlns="http://www.w3.org/2000/svg">
<path d="M19.5 13.5V4.5V13.5Z" fill="#93D3A2"/>
<path d="M19.5 13.5V4.5" stroke="#28A745" stroke-miterlimit="10"/>
<path d="M19.5 1.5C18.7044 1.5 17.9413 1.81607 17.3787 2.37868C16.8161 2.94129 16.5 3.70435 16.5 4.5C16.5 5.29565 16.8161 6.05871 17.3787 6.62132C17.9413 7.18393 18.7044 7.5 19.5 7.5C20.2956 7.5 21.0587 7.18393 21.6213 6.62132C22.1839 6.05871 22.5 5.29565 22.5 4.5C22.5 3.70435 22.1839 2.94129 21.6213 2.37868C21.0587 1.81607 20.2956 1.5 19.5 1.5Z" fill="#93D3A2"/>
<path d="M19.5 2C20.879 2 22 3.122 22 4.5C22 5.878 20.879 7 19.5 7C18.121 7 17 5.878 17 4.5C17 3.122 18.121 2 19.5 2ZM19.5 1C17.567 1 16 2.567 16 4.5C16 6.433 17.567 8 19.5 8C21.433 8 23 6.433 23 4.5C23 2.567 21.433 1 19.5 1Z" fill="#28A745"/>
<path d="M19 38.5C14.696 38.5 4.5 37.142 4.5 35V26.861C4.5 19.077 11.141 12.5 19 12.5H20C27.859 12.5 34.5 19.077 34.5 26.861V35C34.5 37.142 24.304 38.5 20 38.5H19Z" fill="#93D3A2"/>
<path d="M20 13C27.589 13 34 19.348 34 26.861V35C34 35.011 33.761 36.136 28.429 37.129C25.202 37.73 21.558 38 20 38H19C17.442 38 13.798 37.73 10.571 37.129C5.239 36.136 5 35.011 5 35V26.861C5 19.348 11.411 13 19 13H20ZM20 12H19C10.846 12 4 18.707 4 26.861V35C4 37.965 16.035 39 19 39H20C22.965 39 35 37.965 35 35V26.861C35 18.707 28.154 12 20 12Z" fill="#28A745"/>
<path d="M12.5 30.5C10.294 30.5 8.5 28.706 8.5 26.5C8.5 24.294 10.294 22.5 12.5 22.5H26.5C28.706 22.5 30.5 24.294 30.5 26.5C30.5 28.706 28.706 30.5 26.5 30.5H12.5Z" fill="white"/>
<path d="M26.5 23C28.43 23 30 24.57 30 26.5C30 28.43 28.43 30 26.5 30H12.5C10.57 30 9 28.43 9 26.5C9 24.57 10.57 23 12.5 23H26.5ZM26.5 22H12.5C10.025 22 8 24.025 8 26.5C8 28.975 10.025 31 12.5 31H26.5C28.975 31 31 28.975 31 26.5C31 24.025 28.975 22 26.5 22Z" fill="#28A745"/>
<path d="M12.5 25.5C12.2348 25.5 11.9804 25.6054 11.7929 25.7929C11.6054 25.9804 11.5 26.2348 11.5 26.5C11.5 26.7652 11.6054 27.0196 11.7929 27.2071C11.9804 27.3946 12.2348 27.5 12.5 27.5C12.7652 27.5 13.0196 27.3946 13.2071 27.2071C13.3946 27.0196 13.5 26.7652 13.5 26.5C13.5 26.2348 13.3946 25.9804 13.2071 25.7929C13.0196 25.6054 12.7652 25.5 12.5 25.5Z" fill="#93D3A2"/>
<path d="M12.5 26C12.776 26 13 26.224 13 26.5C13 26.776 12.776 27 12.5 27C12.224 27 12 26.776 12 26.5C12 26.224 12.224 26 12.5 26ZM12.5 25C11.672 25 11 25.672 11 26.5C11 27.328 11.672 28 12.5 28C13.328 28 14 27.328 14 26.5C14 25.672 13.328 25 12.5 25Z" fill="#28A745"/>
<path d="M26.5 25.5C26.2348 25.5 25.9804 25.6054 25.7929 25.7929C25.6054 25.9804 25.5 26.2348 25.5 26.5C25.5 26.7652 25.6054 27.0196 25.7929 27.2071C25.9804 27.3946 26.2348 27.5 26.5 27.5C26.7652 27.5 27.0196 27.3946 27.2071 27.2071C27.3946 27.0196 27.5 26.7652 27.5 26.5C27.5 26.2348 27.3946 25.9804 27.2071 25.7929C27.0196 25.6054 26.7652 25.5 26.5 25.5Z" fill="#93D3A2"/>
<path d="M26.5 26C26.776 26 27 26.224 27 26.5C27 26.776 26.776 27 26.5 27C26.224 27 26 26.776 26 26.5C26 26.224 26.224 26 26.5 26ZM26.5 25C25.672 25 25 25.672 25 26.5C25 27.328 25.672 28 26.5 28C27.328 28 28 27.328 28 26.5C28 25.672 27.328 25 26.5 25Z" fill="#28A745"/>
<path d="M35.5 32.5C34.948 32.5 34.5 32.051 34.5 31.5V18.5C34.5 17.949 34.948 17.5 35.5 17.5C36.052 17.5 36.5 17.949 36.5 18.5V31.5C36.5 32.051 36.052 32.5 35.5 32.5Z" fill="#EAF6EC"/>
<path d="M35.5 18C35.771 18 36 18.229 36 18.5V31.5C36 31.771 35.771 32 35.5 32C35.229 32 35 31.771 35 31.5V18.5C35 18.229 35.229 18 35.5 18ZM35.5 17C34.675 17 34 17.675 34 18.5V31.5C34 32.325 34.675 33 35.5 33C36.325 33 37 32.325 37 31.5V18.5C37 17.675 36.325 17 35.5 17Z" fill="#28A745"/>
<path d="M3.5 32.5C2.948 32.5 2.5 32.051 2.5 31.5V18.5C2.5 17.949 2.948 17.5 3.5 17.5C4.052 17.5 4.5 17.949 4.5 18.5V31.5C4.5 32.051 4.052 32.5 3.5 32.5Z" fill="#EAF6EC"/>
<path d="M3.5 18C3.771 18 4 18.229 4 18.5V31.5C4 31.771 3.771 32 3.5 32C3.229 32 3 31.771 3 31.5V18.5C3 18.229 3.229 18 3.5 18ZM3.5 17C2.675 17 2 17.675 2 18.5V31.5C2 32.325 2.675 33 3.5 33C4.325 33 5 32.325 5 31.5V18.5C5 17.675 4.325 17 3.5 17Z" fill="#28A745"/>
</svg>

<svg width="40" height="40" fill="none" xmlns="http://www.w3.org/2000/svg"><path d="M19.5 13.5v-9 9Z" fill="#93D3A2"/><path d="M19.5 13.5v-9" stroke="#28A745" stroke-miterlimit="10"/><path d="M19.5 1.5a3 3 0 1 0 0 6 3 3 0 0 0 0-6Z" fill="#93D3A2"/><path d="M19.5 2C20.879 2 22 3.122 22 4.5S20.879 7 19.5 7A2.503 2.503 0 0 1 17 4.5C17 3.122 18.121 2 19.5 2Zm0-1a3.5 3.5 0 1 0 0 7 3.5 3.5 0 0 0 0-7Z" fill="#28A745"/><path d="M19 38.5c-4.304 0-14.5-1.358-14.5-3.5v-8.139C4.5 19.077 11.141 12.5 19 12.5h1c7.859 0 14.5 6.577 14.5 14.361V35c0 2.142-10.196 3.5-14.5 3.5h-1Z" fill="#93D3A2"/><path d="M20 13c7.589 0 14 6.348 14 13.861V35c0 .011-.239 1.136-5.571 2.129C25.202 37.73 21.558 38 20 38h-1c-1.558 0-5.202-.27-8.429-.871C5.239 36.136 5 35.011 5 35v-8.139C5 19.348 11.411 13 19 13h1Zm0-1h-1c-8.154 0-15 6.707-15 14.861V35c0 2.965 12.035 4 15 4h1c2.965 0 15-1.035 15-4v-8.139C35 18.707 28.154 12 20 12Z" fill="#28A745"/><path d="M12.5 30.5c-2.206 0-4-1.794-4-4s1.794-4 4-4h14c2.206 0 4 1.794 4 4s-1.794 4-4 4h-14Z" fill="#fff"/><path d="M26.5 23c1.93 0 3.5 1.57 3.5 3.5S28.43 30 26.5 30h-14C10.57 30 9 28.43 9 26.5s1.57-3.5 3.5-3.5h14Zm0-1h-14A4.513 4.513 0 0 0 8 26.5c0 2.475 2.025 4.5 4.5 4.5h14c2.475 0 4.5-2.025 4.5-4.5S28.975 22 26.5 22Z" fill="#28A745"/><path d="M12.5 25.5a1 1 0 1 0 0 2 1 1 0 0 0 0-2Z" fill="#93D3A2"/><path d="M12.5 26a.5.5 0 1 1 0 1 .5.5 0 0 1 0-1Zm0-1a1.5 1.5 0 1 0 .001 3.001A1.5 1.5 0 0 0 12.5 25Z" fill="#28A745"/><path d="M26.5 25.5a1 1 0 1 0 0 2 1 1 0 0 0 0-2Z" fill="#93D3A2"/><path d="M26.5 26a.5.5 0 1 1 0 1 .5.5 0 0 1 0-1Zm0-1a1.5 1.5 0 1 0 .001 3.001A1.5 1.5 0 0 0 26.5 25Z" fill="#28A745"/><path d="M35.5 32.5c-.552 0-1-.449-1-1v-13a1.001 1.001 0 0 1 2 0v13c0 .551-.448 1-1 1Z" fill="#EAF6EC"/><path d="M35.5 18c.271 0 .5.229.5.5v13c0 .271-.229.5-.5.5a.507.507 0 0 1-.5-.5v-13c0-.271.229-.5.5-.5Zm0-1c-.825 0-1.5.675-1.5 1.5v13c0 .825.675 1.5 1.5 1.5s1.5-.675 1.5-1.5v-13c0-.825-.675-1.5-1.5-1.5Z" fill="#28A745"/><path d="M3.5 32.5c-.552 0-1-.449-1-1v-13a1.001 1.001 0 0 1 2 0v13c0 .551-.448 1-1 1Z" fill="#EAF6EC"/><path d="M3.5 18c.271 0 .5.229.5.5v13c0 .271-.229.5-.5.5a.507.507 0 0 1-.5-.5v-13c0-.271.229-.5.5-.5Zm0-1c-.825 0-1.5.675-1.5 1.5v13c0 .825.675 1.5 1.5 1.5S5 32.325 5 31.5v-13c0-.825-.675-1.5-1.5-1.5Z" fill="#28A745"/></svg>
